src/components/Icon/assets/notification-important.svg

<svg width="24" height="24" viewBox="0 0 24 24" fill="none" xmlns="http://www.w3.org/2000/svg">
<path fill-rule="evenodd" clip-rule="evenodd" d="M19.9998 7H22.0008V0H19.9998V7ZM21 10.9C21.663 10.9 22.2 10.363 22.2 9.7C22.2 9.037 21.663 8.5 21 8.5C20.337 8.5 19.8 9.037 19.8 9.7C19.8 10.363 20.337 10.9 21 10.9ZM6.29472 13.6021L4.80072 16.0001H19.1987L17.7057 13.6021C16.6837 11.9631 16.1447 10.0761 16.1447 8.14512C16.1447 5.85912 14.2847 4.00012 11.9997 4.00012C9.71472 4.00012 7.85472 5.85912 7.85472 8.14512C7.85472 10.0751 7.31572 11.9621 6.29472 13.6021ZM9.99969 18.0001C9.99969 19.1031 10.8967 20.0001 11.9997 20.0001C13.1027 20.0001 13.9997 19.1031 13.9997 18.0001H9.99969ZM18.1447 8.14512C18.1447 9.70212 18.5797 11.2231 19.4027 12.5441L21.7537 16.3181C21.9647 16.6561 21.9757 17.0831 21.7817 17.4331C21.5887 17.7831 21.2197 18.0001 20.8197 18.0001H15.9997C15.9997 20.2061 14.2057 22.0001 11.9997 22.0001C9.79471 22.0001 7.99971 20.2061 7.99971 18.0001H3.17971C2.77971 18.0001 2.41171 17.7831 2.21771 17.4331C2.02471 17.0841 2.03471 16.6571 2.24671 16.3181L4.59671 12.5441C5.41971 11.2231 5.85471 9.70112 5.85471 8.14512C5.85471 4.75612 8.61171 2.00012 11.9997 2.00012C15.3877 2.00012 18.1447 4.75612 18.1447 8.14512Z" fill="#65676A"/>
</svg>

<svg xmlns="http://www.w3.org/2000/svg" width="24" height="24" viewBox="0 0 24 24">
    <path fill="#65676A" fill-rule="evenodd" d="M12 2c3.388 0 6.145 2.756 6.145 6.145 0 1.557.435 3.078 1.258 4.4l2.35 3.773c.212.338.223.765.029 1.115-.193.35-.562.567-.962.567H16c0 2.206-1.794 4-4 4-2.205 0-4-1.794-4-4H3.18c-.4 0-.768-.217-.962-.567-.193-.349-.183-.776.029-1.115l2.35-3.774c.823-1.32 1.258-2.843 1.258-4.399C5.855 4.756 8.612 2 12 2zm2 16h-4c0 1.103.897 2 2 2s2-.897 2-2zM12 4C9.715 4 7.855 5.86 7.855 8.145c0 1.93-.54 3.817-1.56 5.457L4.8 16h14.398l-1.493-2.398c-1.022-1.639-1.561-3.526-1.561-5.457C16.145 5.86 14.285 4 12 4zm9 4.5c.663 0 1.2.537 1.2 1.2 0 .663-.537 1.2-1.2 1.2-.663 0-1.2-.537-1.2-1.2 0-.663.537-1.2 1.2-1.2zM22 0v7h-2V0h2z"/>
</svg>
